X:1
T:Title
%%score ( 1 2 ) ( 3 4 )
L:1/8
Q:1/4=53
M:6/8
K:F
V:1 treble nm="Flute, Soprano"
V:2 treble 
V:3 bass nm="Strings 1, Bass"
V:4 bass 
V:1
 [FA][FA][FA] [FA][FA][FA] | [FA][CG][DF] [EG]3 | [EG][EG][EG] [EG][EG][EG] | GF[CE] [CF]3 | %4
w: 1.~When~ I~ get~ wea ry~ with~|toils~ of~ the~ day,~|Off~ in~ the~ se cret~ I~|kneel~ * and~ pray;~|
 [Fc][Fc][Fc] [FA][CG][CF] | [DG][DF][B,D] [DF][CE][B,D] | [A,C][CF][EB] [FA]2 [CG] | [CF]6 | %8
w: There~ I~ can~ hear~ my~ Lord~|sweet * ly~ say,~ * "Come~|clos er,~ my~ child,~ to~|me."~|
 [FA][FA][FA] [FB]2 [FA] | [FA]3 .[CF]3 | [EG][EG][EG] [FA]2 [CG] | [CF]3 .[A,C]3 | %12
w: ||||
 [FA][FA][FA] [FB]2 [FA] | [FA]3 [CF]2 [FA] | [FA] [EG]2- [EG]2 [GB] | [GB] [FA]2- [FA]2 z | %16
w: ||||
 [FA][EG]F [CG]2 [CE] | [CF]6 |] %18
w: ||
V:2
 x6 | x6 | x6 | .C3 z3 | x6 | x6 | x6 | x6 | x6 | x6 | x6 | x6 | x6 | x6 | x6 | x6 | x6 | x6 |] %18
V:3
 [F,C][F,C][F,C] [F,C][F,C][F,C] | [F,C][E,C][D,=B,] [C,C]3 | [C,C][C,C][C,C] [C,C][C,C][C,C] | %3
 B,A,[C,G,] [F,A,]3 | [F,A,][F,A,][F,A,] [F,C][F,B,][F,A,] | %5
 [B,,B,][B,,B,][B,,F,] [B,,F,]2 [B,,F,] | [C,F,][C,A,][C,D] [C,C]2 [C,B,] | [F,,F,A,]6 | %8
 [F,C][F,C][F,C] [F,D]2 [F,C] | C3 .A,3 | [C,B,][C,B,][C,B,] [C,C]2 [C,B,] | [F,A,]6 | %12
 [F,C][F,C][F,C] [F,D]2 [F,C] | C3 .A,3 | z2 [C,C] [C,C] .[C,C]2 | z2 [F,C] [F,C] .[F,C]2 | %16
 [C,C][C,B,][C,A,] [C,B,]2 [C,B,] | [F,,F,A,]6 |] %18
V:4
 x6 | x6 | x6 | .C,3 z3 | x6 | x6 | x6 | x6 | x6 | F,6 | x6 | x6 | x6 | F,6 | x6 | x6 | x6 | x6 |] %18

